source/images/cart.svg

<svg viewBox="0 0 16 16" fill="none" xmlns="http://www.w3.org/2000/svg"><path d="m5.66 3.87.23 2.79h4.21l.23-2.79a2.34 2.34 0 0 0-2.33-2.54 2.34 2.34 0 0 0-2.34 2.54Zm5.78 2.79.22-2.68a3.67 3.67 0 1 0-7.33 0l.22 2.68h-4.55l.19 1.34.81 5.71a2.67 2.67 0 0 0 2.64 2.29h8.71c1.33 0 2.45-.98 2.64-2.29l.81-5.71.2-1.34h-4.56Zm-.11 1.34h-.05l-.23 2.66h3.03l.38-2.66h-3.13Zm-1.39 0h-3.89l.23 2.66h3.43l.23-2.66Zm-5.23 0h-3.18l.38 2.66h3.03l-.23-2.66Zm1.9 6.66-.22-2.66h3.21l-.22 2.66h-2.77Zm4.33-2.66-.22 2.66h1.63c.66 0 1.23-.49 1.32-1.14l.22-1.52h-2.95Zm-5.89 0 .22 2.66h-1.63c-.66 0-1.23-.49-1.32-1.14l-.22-1.52h2.95Z" fill="#333" fill-rule="evenodd"/></svg>

<svg width="16.000000" height="16.000000" viewBox="0 0 16 16" fill="none" xmlns="http://www.w3.org/2000/svg" xmlns:xlink="http://www.w3.org/1999/xlink">
	<desc>
			Created with Pixso.
	</desc>
	<defs/>
	<path id="Union" d="M5.66 3.87L5.89 6.66L10.1 6.66L10.33 3.87C10.45 2.5 9.37 1.33 8 1.33C6.62 1.33 5.54 2.5 5.66 3.87ZM11.44 6.66L11.66 3.98C11.84 1.84 10.15 0 8 0C5.84 0 4.15 1.84 4.33 3.98L4.55 6.66L1.34 6.66L0 6.66L0.19 8L1 13.71C1.19 15.02 2.31 16 3.64 16L12.35 16C13.68 16 14.8 15.02 14.99 13.71L15.8 8L16 6.66L14.65 6.66L11.44 6.66ZM11.33 8L11.28 8L11.05 10.66L14.08 10.66L14.46 8L11.33 8ZM9.94 8L6.05 8L6.28 10.66L9.71 10.66L9.94 8ZM4.71 8L4.66 8L1.53 8L1.91 10.66L4.94 10.66L4.71 8ZM6.61 14.66L6.39 12L9.6 12L9.38 14.66L6.61 14.66ZM10.94 12L10.72 14.66L12.35 14.66C13.01 14.66 13.58 14.17 13.67 13.52L13.89 12L10.94 12ZM5.05 12L5.27 14.66L3.64 14.66C2.98 14.66 2.41 14.17 2.32 13.52L2.1 12L5.05 12Z" fill="#333333" fill-opacity="1.000000" fill-rule="evenodd"/>
</svg>
